X: 12530
T: Farewell To Ireland
R: reel
M: 4/4
K: Adorian
|:~A3 c ~e3 f|gedB GBdB|~A3c ~e3f|gedg egdB|
~A3c ~e3f|gedB dGB/c/d|edeg a2 ba|1 gedB cBGB:|2 gedB AAe/f/g||
|:a4 agef|g3a gedA|egag agef|gedB A2 e/f/g|
a3b ~g3e|dedB G2 B/c/d|B~A3 ~e3f|gedB BA A2:|
|:e~A3 eA^ce|d~G3 dGB/c/d|e~A3 e3f|gedB B~A3|
e~A3 eA^ce|d^cdB G2B/c/d|e~A3 ~e3f|gedB B~A3:|
|:ae^ce aece|gd^cd gd^cd|ae^ce ~a3f|gedB ~A2e/f/g|
a3b ~g3e|dedB ~G2B/c/d|B~A3 ~e3f|1 gedB BAAg:|2 gedB BA A2||

